src/assets/icons/arrows,fancy,up-left.svg

<svg width="48" height="48" viewBox="0 0 48 48" fill="none" xmlns="http://www.w3.org/2000/svg">
<g clip-path="url(#clip0_37:595)">
<path opacity="0.8" d="M40.1122 33.0623C40.8932 33.8434 40.8932 35.1097 40.1122 35.8908L35.8695 40.1334C35.0885 40.9145 33.8221 40.9145 33.0411 40.1334L16.0705 23.1629C15.2895 22.3818 15.2895 21.1155 16.0705 20.3344L20.3132 16.0918C21.0942 15.3107 22.3605 15.3107 23.1416 16.0918L40.1122 33.0623Z" fill="black"/>
<path d="M33.1626 9.72799L11.7067 9.72799C10.6021 9.72799 9.70671 10.6234 9.70671 11.728L9.70671 33.1838C9.70671 34.2884 10.6021 35.1838 11.7067 35.1838L17.6062 35.1838C18.7108 35.1838 19.6062 34.2884 19.6062 33.1838L19.6062 21.6275C19.6062 20.5229 20.5016 19.6275 21.6062 19.6275L33.1626 19.6275C34.2671 19.6275 35.1626 18.7321 35.1626 17.6275V11.728C35.1626 10.6234 34.2671 9.72799 33.1626 9.72799Z" fill="black"/>
</g>
<defs>
<clipPath id="clip0_37:595">
<rect width="48" height="48" fill="white"/>
</clipPath>
</defs>
</svg>

<svg xmlns="http://www.w3.org/2000/svg" width="48" height="48" fill="none" viewBox="0 0 48 48">
  <g clip-path="url(#clip0_37:595)">
    <path fill="#000" d="M40.112 33.062a2 2 0 010 2.829l-4.242 4.242a2 2 0 01-2.829 0l-16.97-16.97a2 2 0 010-2.829l4.242-4.242a2 2 0 012.829 0l16.97 16.97z" opacity=".8"/>
    <path fill="#000" d="M33.163 9.728H11.707a2 2 0 00-2 2v21.456a2 2 0 002 2h5.9a2 2 0 002-2V21.628a2 2 0 012-2h11.556a2 2 0 002-2v-5.9a2 2 0 00-2-2z"/>
  </g>
  <defs>
    <clipPath id="clip0_37:595">
      <path fill="#fff" d="M0 0h48v48H0z"/>
    </clipPath>
  </defs>
</svg>
